assets/companies/melsicon.svg

<svg xmlns="http://www.w3.org/2000/svg" fill-rule="evenodd" stroke-linejoin="round" stroke-miterlimit="2" clip-rule="evenodd" preserveAspectRatio="xMinYMin" viewBox="0 0 128 31"><path fill="#6464e1" d="M26.629 7.981a7 7 0 0 0-.707-.033q-1.698 0-2.937.832a14.7 14.7 0 0 0-2.361 1.987q-.645-1.359-1.749-2.089c-1.104-.73-1.704-.73-2.904-.73q-1.664 0-2.853.764a13.5 13.5 0 0 0-2.241 1.817h-.136l-.339-2.174H6.326v16.846h4.992V13.823q1.563-1.63 2.853-1.63 1.087 0 1.58.679.492.68.492 2.514v9.815h4.992V13.823q1.631-1.63 2.887-1.63 1.087 0 1.58.679.492.68.492 2.514V25.1a14.4 14.4 0 0 1-11.4 5.58C6.822 30.68.36 24.218.36 16.246S6.822 1.812 14.794 1.812c4.897 0 9.225 2.439 11.835 6.169m11.248 17.627q-1.8 0-3.362-.594a7.75 7.75 0 0 1-2.717-1.732q-1.155-1.138-1.8-2.768c-.645-1.63-.646-2.332-.646-3.736q0-2.038.68-3.685c.68-1.647 1.047-2.026 1.783-2.785a7.8 7.8 0 0 1 2.53-1.749 7.4 7.4 0 0 1 2.955-.611q1.8 0 3.141.611a6.2 6.2 0 0 1 2.242 1.698q.9 1.087 1.341 2.565.441 1.476.442 3.209a12 12 0 0 1-.204 2.207H34.175q.34 1.834 1.511 2.7 1.173.867 2.87.867 1.8 0 3.634-1.121l1.664 3.022a11 11 0 0 1-2.869 1.393 10.1 10.1 0 0 1-3.108.509m-3.736-10.664h6.079q0-1.427-.645-2.309t-2.173-.883q-1.19 0-2.089.781c-.899.781-.991 1.324-1.172 2.411m17.808 10.664q-1.291 0-2.174-.407-.883-.408-1.409-1.138c-.526-.73-.606-1.075-.764-1.766q-.238-1.036-.238-2.326V1.393h4.992v18.781q0 .781.289 1.087.288.306.594.306h.289q.119 0 .323-.068l.611 3.702a5.3 5.3 0 0 1-1.036.288q-.628.12-1.477.119m9.52 0q-1.664 0-3.413-.645c-1.749-.645-2.179-.996-3.039-1.698l2.241-3.125q1.155.884 2.208 1.325c1.053.441 1.415.441 2.139.441q1.121 0 1.63-.373.51-.373.51-1.053 0-.408-.289-.73a3 3 0 0 0-.781-.595 8 8 0 0 0-1.104-.492 26 26 0 0 1-1.256-.492 16 16 0 0 1-1.563-.714 6.6 6.6 0 0 1-1.426-1.002 4.9 4.9 0 0 1-1.053-1.392q-.407-.798-.407-1.851 0-1.155.458-2.14.459-.984 1.308-1.664c.849-.68 1.245-.809 2.037-1.07q1.19-.39 2.649-.39 1.936 0 3.397.662t2.547 1.478l-2.242 2.988a8.8 8.8 0 0 0-1.8-1.053 4.5 4.5 0 0 0-1.766-.373q-1.902 0-1.902 1.324 0 .408.272.697.272.288.73.526.459.237 1.053.458l1.24.459q.815.306 1.613.696a6.7 6.7 0 0 1 1.46.968q.662.578 1.07 1.41t.408 1.986q0 1.155-.442 2.14a4.7 4.7 0 0 1-1.324 1.715q-.884.73-2.174 1.155c-1.29.425-1.856.424-2.989.424m9.521-.407V8.355h4.993v16.846zm2.479-19.325q-1.256 0-2.071-.73t-.815-1.885c.001-1.155.271-1.392.815-1.868Q72.213.68 73.469.68q1.291 0 2.089.713.798.714.798 1.868c0 1.154-.266 1.398-.798 1.885s-1.228.73-2.089.73m13.665 19.732q-1.766 0-3.278-.594-1.511-.594-2.632-1.715c-1.121-1.121-1.336-1.67-1.766-2.768s-.645-2.349-.645-3.753.238-2.655.713-3.753q.713-1.646 1.919-2.768 1.206-1.12 2.802-1.715c1.596-.595 2.173-.594 3.328-.594q1.563 0 2.768.509 1.206.51 2.157 1.291l-2.344 3.226q-1.189-.984-2.275-.985-1.834 0-2.887 1.291c-1.053 1.291-1.053 2.026-1.053 3.498s.357 2.638 1.07 3.498q1.07 1.291 2.7 1.291a3.7 3.7 0 0 0 1.579-.357q.765-.356 1.444-.866l1.969 3.261q-1.256 1.086-2.717 1.545a9.5 9.5 0 0 1-2.852.458m14.241 0a8.3 8.3 0 0 1-3.09-.594 7.8 7.8 0 0 1-2.633-1.715q-1.137-1.12-1.817-2.768-.678-1.647-.679-3.753c-.001-2.106.227-2.655.679-3.753q.68-1.646 1.817-2.768a7.8 7.8 0 0 1 2.633-1.715 8.3 8.3 0 0 1 6.164 0 7.9 7.9 0 0 1 2.615 1.715q1.137 1.121 1.817 2.768c.68 1.647.679 2.349.679 3.753s-.226 2.655-.679 3.753-1.059 2.021-1.817 2.768q-1.138 1.12-2.615 1.715c-1.477.595-2.01.594-3.074.594m0-4.041q1.529 0 2.31-1.291.78-1.29.781-3.498c.001-2.208-.261-2.638-.781-3.498q-.781-1.29-2.31-1.291-1.562 0-2.326 1.291t-.764 3.498c0 2.208.254 2.638.764 3.498q.764 1.291 2.326 1.291m11.049 3.634V8.355h4.076l.339 2.14h.136a13.7 13.7 0 0 1 2.377-1.783q1.291-.764 3.023-.764 2.75 0 3.991 1.8 1.239 1.8 1.239 4.992v10.461h-4.992v-9.815q0-1.835-.493-2.514-.492-.678-1.579-.679-.95 0-1.63.425c-.68.425-.951.685-1.494 1.205v11.378z"/></svg>

<svg style="fill-rule:evenodd;clip-rule:evenodd;stroke-linejoin:round;stroke-miterlimit:2;" xml:space="preserve" xmlns:xlink="http://www.w3.org/1999/xlink" xmlns="http://www.w3.org/2000/svg" version="1.1" viewBox="0 0 128 31" height="100%" width="100%">
    <path style="fill:rgb(100,100,225);" d="M26.629,7.981C26.402,7.959 26.167,7.948 25.922,7.948C24.79,7.948 23.811,8.225 22.985,8.78C22.158,9.335 21.371,9.997 20.624,10.767C20.194,9.861 19.611,9.165 18.875,8.678C18.139,8.191 17.171,7.948 15.971,7.948C14.862,7.948 13.911,8.203 13.118,8.712C12.326,9.222 11.579,9.827 10.877,10.529L10.741,10.529L10.402,8.355L6.326,8.355L6.326,25.201L11.318,25.201L11.318,13.823C12.36,12.737 13.311,12.193 14.171,12.193C14.896,12.193 15.422,12.42 15.751,12.872C16.079,13.325 16.243,14.163 16.243,15.386L16.243,25.201L21.235,25.201L21.235,13.823C22.322,12.737 23.285,12.193 24.122,12.193C24.847,12.193 25.373,12.42 25.702,12.872C26.03,13.325 26.194,14.163 26.194,15.386L26.194,25.1C23.553,28.496 19.429,30.68 14.794,30.68C6.822,30.68 0.36,24.218 0.36,16.246C0.36,8.274 6.822,1.812 14.794,1.812C19.691,1.812 24.019,4.251 26.629,7.981ZM37.877,25.608C36.677,25.608 35.556,25.41 34.515,25.014C33.473,24.618 32.568,24.04 31.798,23.282C31.028,22.523 30.428,21.601 29.998,20.514C29.568,19.427 29.352,18.182 29.352,16.778C29.352,15.42 29.579,14.191 30.032,13.093C30.485,11.995 31.079,11.067 31.815,10.308C32.551,9.55 33.394,8.967 34.345,8.559C35.296,8.152 36.281,7.948 37.3,7.948C38.5,7.948 39.547,8.152 40.441,8.559C41.335,8.967 42.083,9.533 42.683,10.257C43.283,10.982 43.73,11.837 44.024,12.822C44.318,13.806 44.466,14.876 44.466,16.031C44.466,16.484 44.443,16.914 44.398,17.322C44.352,17.729 44.307,18.035 44.262,18.238L34.175,18.238C34.402,19.461 34.905,20.361 35.686,20.938C36.468,21.516 37.424,21.805 38.556,21.805C39.756,21.805 40.968,21.431 42.19,20.684L43.854,23.706C42.994,24.295 42.037,24.759 40.985,25.099C39.932,25.438 38.896,25.608 37.877,25.608ZM34.141,14.944L40.22,14.944C40.22,13.993 40.005,13.223 39.575,12.635C39.145,12.046 38.42,11.752 37.402,11.752C36.609,11.752 35.913,12.012 35.313,12.533C34.713,13.054 34.322,13.857 34.141,14.944ZM51.949,25.608C51.088,25.608 50.364,25.472 49.775,25.201C49.186,24.929 48.717,24.55 48.366,24.063C48.015,23.576 47.76,22.988 47.602,22.297C47.443,21.606 47.364,20.831 47.364,19.971L47.364,1.393L52.356,1.393L52.356,20.174C52.356,20.695 52.452,21.057 52.645,21.261C52.837,21.465 53.035,21.567 53.239,21.567L53.528,21.567C53.607,21.567 53.715,21.544 53.851,21.499L54.462,25.201C54.19,25.314 53.845,25.41 53.426,25.489C53.007,25.569 52.515,25.608 51.949,25.608ZM61.469,25.608C60.36,25.608 59.222,25.393 58.056,24.963C56.89,24.533 55.877,23.967 55.017,23.265L57.258,20.14C58.028,20.729 58.764,21.171 59.466,21.465C60.168,21.759 60.881,21.906 61.605,21.906C62.352,21.906 62.896,21.782 63.235,21.533C63.575,21.284 63.745,20.933 63.745,20.48C63.745,20.208 63.649,19.965 63.456,19.75C63.264,19.535 63.003,19.337 62.675,19.155C62.347,18.974 61.979,18.81 61.571,18.663C61.164,18.516 60.745,18.352 60.315,18.171C59.794,17.967 59.273,17.729 58.752,17.457C58.232,17.186 57.756,16.852 57.326,16.455C56.896,16.059 56.545,15.595 56.273,15.063C56.002,14.531 55.866,13.914 55.866,13.212C55.866,12.442 56.018,11.729 56.324,11.072C56.63,10.416 57.066,9.861 57.632,9.408C58.198,8.955 58.877,8.599 59.669,8.338C60.462,8.078 61.345,7.948 62.318,7.948C63.609,7.948 64.741,8.169 65.715,8.61C66.688,9.052 67.537,9.544 68.262,10.088L66.02,13.076C65.409,12.623 64.809,12.272 64.22,12.023C63.632,11.774 63.043,11.65 62.454,11.65C61.186,11.65 60.552,12.091 60.552,12.974C60.552,13.246 60.643,13.478 60.824,13.671C61.005,13.863 61.249,14.038 61.554,14.197C61.86,14.355 62.211,14.508 62.607,14.655C63.003,14.803 63.417,14.955 63.847,15.114C64.39,15.318 64.928,15.55 65.46,15.81C65.992,16.071 66.479,16.393 66.92,16.778C67.362,17.163 67.718,17.633 67.99,18.188C68.262,18.742 68.398,19.405 68.398,20.174C68.398,20.944 68.251,21.657 67.956,22.314C67.662,22.971 67.22,23.542 66.632,24.029C66.043,24.516 65.318,24.901 64.458,25.184C63.598,25.467 62.602,25.608 61.469,25.608ZM70.99,25.201L70.99,8.355L75.983,8.355L75.983,25.201L70.99,25.201ZM73.469,5.876C72.632,5.876 71.941,5.633 71.398,5.146C70.854,4.659 70.583,4.031 70.583,3.261C70.583,2.491 70.854,1.869 71.398,1.393C71.941,0.918 72.632,0.68 73.469,0.68C74.33,0.68 75.026,0.918 75.558,1.393C76.09,1.869 76.356,2.491 76.356,3.261C76.356,4.031 76.09,4.659 75.558,5.146C75.026,5.633 74.33,5.876 73.469,5.876ZM87.134,25.608C85.956,25.608 84.864,25.41 83.856,25.014C82.849,24.618 81.971,24.046 81.224,23.299C80.477,22.552 79.888,21.629 79.458,20.531C79.028,19.433 78.813,18.182 78.813,16.778C78.813,15.374 79.051,14.123 79.526,13.025C80.002,11.927 80.641,11.005 81.445,10.257C82.249,9.51 83.183,8.938 84.247,8.542C85.311,8.146 86.42,7.948 87.575,7.948C88.617,7.948 89.539,8.118 90.343,8.457C91.147,8.797 91.866,9.227 92.5,9.748L90.156,12.974C89.364,12.318 88.605,11.989 87.881,11.989C86.658,11.989 85.696,12.42 84.994,13.28C84.292,14.14 83.941,15.306 83.941,16.778C83.941,18.25 84.298,19.416 85.011,20.276C85.724,21.137 86.624,21.567 87.711,21.567C88.254,21.567 88.781,21.448 89.29,21.21C89.8,20.972 90.281,20.684 90.734,20.344L92.703,23.605C91.866,24.329 90.96,24.844 89.986,25.15C89.013,25.455 88.062,25.608 87.134,25.608ZM101.375,25.608C100.311,25.608 99.281,25.41 98.285,25.014C97.288,24.618 96.411,24.046 95.652,23.299C94.894,22.552 94.288,21.629 93.835,20.531C93.383,19.433 93.156,18.182 93.156,16.778C93.156,15.374 93.383,14.123 93.835,13.025C94.288,11.927 94.894,11.005 95.652,10.257C96.411,9.51 97.288,8.938 98.285,8.542C99.281,8.146 100.311,7.948 101.375,7.948C102.439,7.948 103.464,8.146 104.449,8.542C105.434,8.938 106.305,9.51 107.064,10.257C107.822,11.005 108.428,11.927 108.881,13.025C109.334,14.123 109.56,15.374 109.56,16.778C109.56,18.182 109.334,19.433 108.881,20.531C108.428,21.629 107.822,22.552 107.064,23.299C106.305,24.046 105.434,24.618 104.449,25.014C103.464,25.41 102.439,25.608 101.375,25.608ZM101.375,21.567C102.394,21.567 103.164,21.137 103.685,20.276C104.205,19.416 104.466,18.25 104.466,16.778C104.466,15.306 104.205,14.14 103.685,13.28C103.164,12.42 102.394,11.989 101.375,11.989C100.334,11.989 99.558,12.42 99.049,13.28C98.539,14.14 98.285,15.306 98.285,16.778C98.285,18.25 98.539,19.416 99.049,20.276C99.558,21.137 100.334,21.567 101.375,21.567ZM112.424,25.201L112.424,8.355L116.5,8.355L116.839,10.495L116.975,10.495C117.7,9.816 118.492,9.222 119.352,8.712C120.213,8.203 121.22,7.948 122.375,7.948C124.209,7.948 125.539,8.548 126.366,9.748C127.192,10.948 127.605,12.612 127.605,14.74L127.605,25.201L122.613,25.201L122.613,15.386C122.613,14.163 122.449,13.325 122.12,12.872C121.792,12.42 121.266,12.193 120.541,12.193C119.907,12.193 119.364,12.335 118.911,12.618C118.458,12.901 117.96,13.303 117.417,13.823L117.417,25.201L112.424,25.201Z"></path>
</svg>
